X: 5
T: The Tournmore
R: polka
M: 2/4
L: 1/8
K: Gmaj
|:AB/A/ GE|ED E/F/G|AB/A/ GE|ED D2|
AB/A/ GE|ED E/F/G|de/d/ cF|1 AG G2:|2 AG GA||
|:B>^A BD|E/F/G AB|c>B B/c/d|ed dc|
B>^A BD|E/F/G AB|de/d/ cF|1 AG GA:|2 AG G2||

